src/assets/img/a11y-gaad-eye.svg

<svg width="218" height="188" viewBox="0 0 218 188" fill="none" xmlns="http://www.w3.org/2000/svg">
<rect width="218" height="188" fill="#F6F6F6"/>
<path d="M109.5 118C116.435 118 122.329 115.667 127.184 111C132.038 106.333 134.465 100.667 134.465 94C134.465 87.3333 132.038 81.6667 127.184 77C122.329 72.3333 116.435 70 109.5 70C102.565 70 96.6707 72.3333 91.8164 77C86.9621 81.6667 84.535 87.3333 84.535 94C84.535 100.667 86.9621 106.333 91.8164 111C96.6707 115.667 102.565 118 109.5 118ZM109.5 108.4C105.339 108.4 101.802 107 98.8899 104.2C95.9773 101.4 94.521 98 94.521 94C94.521 90 95.9773 86.6 98.8899 83.8C101.802 81 105.339 79.6 109.5 79.6C113.661 79.6 117.198 81 120.11 83.8C123.023 86.6 124.479 90 124.479 94C124.479 98 123.023 101.4 120.11 104.2C117.198 107 113.661 108.4 109.5 108.4ZM109.5 134C97.1099 134 85.8063 130.8 75.5892 124.4C65.372 118 57.3046 109.556 51.3869 99.0667C50.9246 98.2667 50.5779 97.4444 50.3467 96.6C50.1156 95.7556 50 94.8889 50 94C50 93.1111 50.1156 92.2444 50.3467 91.4C50.5779 90.5556 50.9246 89.7333 51.3869 88.9333C57.3046 78.4444 65.372 70 75.5892 63.6C85.8063 57.2 97.1099 54 109.5 54C121.89 54 133.194 57.2 143.411 63.6C153.628 70 161.695 78.4444 167.613 88.9333C168.075 89.7333 168.422 90.5556 168.653 91.4C168.884 92.2444 169 93.1111 169 94C169 94.8889 168.884 95.7556 168.653 96.6C168.422 97.4444 168.075 98.2667 167.613 99.0667C161.695 109.556 153.628 118 143.411 124.4C133.194 130.8 121.89 134 109.5 134ZM109.5 123.333C119.948 123.333 129.541 120.689 138.279 115.4C147.017 110.111 153.697 102.978 158.321 94C153.697 85.0222 147.017 77.8889 138.279 72.6C129.541 67.3111 119.948 64.6667 109.5 64.6667C99.0517 64.6667 89.4586 67.3111 80.7209 72.6C71.9831 77.8889 65.3026 85.0222 60.6795 94C65.3026 102.978 71.9831 110.111 80.7209 115.4C89.4586 120.689 99.0517 123.333 109.5 123.333Z" fill="#5187DF"/>
</svg>

<svg xmlns="http://www.w3.org/2000/svg" width="218" height="188" fill="none" viewBox="0 0 218 188"><path fill="#f6f6f6" d="M0 0h218v188H0z"/><path fill="#5187df" d="M109.5 118q10.402 0 17.684-7 7.281-7 7.281-17t-7.281-17-17.684-7-17.684 7-7.281 17 7.281 17 17.684 7m0-9.6q-6.242 0-10.61-4.2Q94.52 100 94.52 94q0-6 4.369-10.2t10.61-4.2 10.61 4.2q4.37 4.2 4.369 10.2 0 6-4.369 10.2t-10.61 4.2m0 25.6q-18.585 0-33.91-9.6-15.326-9.6-24.203-25.333-.694-1.2-1.04-2.467A9.8 9.8 0 0 1 50 94q0-1.334.347-2.6.346-1.267 1.04-2.467Q60.264 73.2 75.589 63.6T109.5 54t33.911 9.6 24.202 25.333q.693 1.2 1.04 2.467A9.8 9.8 0 0 1 169 94a9.8 9.8 0 0 1-.347 2.6 10.4 10.4 0 0 1-1.04 2.467q-8.877 15.733-24.202 25.333T109.5 134m0-10.667q15.672 0 28.779-7.933T158.321 94q-6.936-13.467-20.042-21.4T109.5 64.667q-15.672 0-28.78 7.933Q67.615 80.533 60.68 94q6.935 13.467 20.04 21.4 13.108 7.933 28.78 7.933"/></svg>
